X: 57
T: Jenny Bowser
R:Reel
C:J. Scott Skinner
S:MacDonald - Skye Collection
N:pg.40
M:C
L:1/8
K:D
G|FG Ac d2 AF|E/E/E BA B(EE)G|(FG) (Ac) d2 (AF)|D/D/D (AF) ADD:|
g|fdec dAGF|E/E/E (BA) BEEg|fdec dBAF|D/D/D (AF) A(DD)g|
fdec dAGF|E/E/E (BA) B(EE)g|fa gb af ge|fdec dBA||


